webapp/laravel/angularFrontend/src/assets/icon/user.svg

<svg height="512pt" viewBox="0 0 512 512" width="512pt" xmlns="http://www.w3.org/2000/svg"><path d="m437.019531 74.980469c-48.351562-48.351563-112.640625-74.980469-181.019531-74.980469-68.382812 0-132.667969 26.628906-181.019531 74.980469-48.351563 48.351562-74.980469 112.636719-74.980469 181.019531 0 68.378906 26.628906 132.667969 74.980469 181.019531 48.351562 48.351563 112.636719 74.980469 181.019531 74.980469 68.378906 0 132.667969-26.628906 181.019531-74.980469 48.351563-48.351562 74.980469-112.640625 74.980469-181.019531 0-68.382812-26.628906-132.667969-74.980469-181.019531zm-308.679687 367.40625c10.707031-61.648438 64.128906-107.121094 127.660156-107.121094 63.535156 0 116.953125 45.472656 127.660156 107.121094-36.347656 24.972656-80.324218 39.613281-127.660156 39.613281s-91.3125-14.640625-127.660156-39.613281zm46.261718-218.519531c0-44.886719 36.515626-81.398438 81.398438-81.398438s81.398438 36.515625 81.398438 81.398438c0 44.882812-36.515626 81.398437-81.398438 81.398437s-81.398438-36.515625-81.398438-81.398437zm235.042969 197.710937c-8.074219-28.699219-24.109375-54.738281-46.585937-75.078125-13.789063-12.480469-29.484375-22.328125-46.359375-29.269531 30.5-19.894531 50.703125-54.3125 50.703125-93.363281 0-61.425782-49.976563-111.398438-111.402344-111.398438s-111.398438 49.972656-111.398438 111.398438c0 39.050781 20.203126 73.46875 50.699219 93.363281-16.871093 6.941406-32.570312 16.785156-46.359375 29.265625-22.472656 20.339844-38.511718 46.378906-46.585937 75.078125-44.472657-41.300781-72.355469-100.238281-72.355469-165.574219 0-124.617188 101.382812-226 226-226s226 101.382812 226 226c0 65.339844-27.882812 124.277344-72.355469 165.578125zm0 0"/></svg>

<?xml version="1.0" encoding="utf-8"?>
<!-- Generator: Adobe Illustrator 24.0.1, SVG Export Plug-In . SVG Version: 6.00 Build 0)  -->
<svg version="1.1" id="Ebene_1" xmlns="http://www.w3.org/2000/svg" xmlns:xlink="http://www.w3.org/1999/xlink" x="0px" y="0px"
	 viewBox="0 0 512 512" style="enable-background:new 0 0 512 512;" xml:space="preserve">
<style type="text/css">
	.st0{fill:#F5F0ED;}
</style>
<path class="st0" d="M437,75C388.7,26.6,324.4,0,256,0C187.6,0,123.3,26.6,75,75S0,187.6,0,256c0,68.4,26.6,132.7,75,181
	s112.6,75,181,75c68.4,0,132.7-26.6,181-75s75-112.6,75-181C512,187.6,485.4,123.3,437,75z M128.3,442.4
	C139,380.7,192.5,335.3,256,335.3c63.5,0,117,45.5,127.7,107.1c-36.3,25-80.3,39.6-127.7,39.6S164.7,467.4,128.3,442.4z
	 M174.6,223.9c0-44.9,36.5-81.4,81.4-81.4s81.4,36.5,81.4,81.4s-36.5,81.4-81.4,81.4S174.6,268.8,174.6,223.9z M409.6,421.6
	c-8.1-28.7-24.1-54.7-46.6-75.1c-13.8-12.5-29.5-22.3-46.4-29.3c30.5-19.9,50.7-54.3,50.7-93.4c0-61.4-50-111.4-111.4-111.4
	s-111.4,50-111.4,111.4c0,39.1,20.2,73.5,50.7,93.4c-16.9,6.9-32.6,16.8-46.4,29.3c-22.5,20.3-38.5,46.4-46.6,75.1
	C57.9,380.3,30,321.3,30,256C30,131.4,131.4,30,256,30s226,101.4,226,226C482,321.3,454.1,380.3,409.6,421.6z"/>
</svg>
